X: 1418
T: An tSeanbhean Bhocht
R: hornpipe
M: 4/4
K: Dmajor
|:FG|Addc dBAG|F2 D2 D2 FD|Eeef ecAF|G2 E2 E2 FG|
Addc d2 FE|DEFE DFAF|GBec dBAG|F2 D2 D2:|
|:AG|FAdA FAdA|FAGE D2 AF|GB (3BAB GBBG|FAFD E2 AG|
FAdA FAdA|FAGE DFAF|GBec dBAG|F2 D2 D2:|

